X: 5
T: Sliabh Russell
Z: JACKB
S: https://thesession.org/tunes/335#setting25916
R: jig
M: 6/8
L: 1/8
K: Ador
|:eAA Bcd|eaf ged|edB cBA|BGG ABd|
eAA Bcd|eaf ged|edB cBA|1 BAG A3:|2 BAG ABd||
|:eaa efg|agf gfd|eaa efg|afd e3|
eaa efg|agf gfd|edB cBA|BAG ABd:|
